X:1
T: Mackenzie's Rant
C:
R:Strathspey
Q: 128
K:Am
M:4/4
L:1/16
|:e2|AA3 a3d e3A ce3|GG3 B3A G4 GB3|AA3 c3d e3A c3e|a3e g3B A4 A2e2|
AA3 a3d e3A ce3|GG3 B3A G4 GB3|AA3 c3d e3A c3e|a3e g3B A4 A2e2|
c3B A3^g ae3 =g3B|GG3 B3A G4 GB3|b3B A2^f^g a3e =g3B|a3e g3B A4 A3e|
c3B A3^g ae3 =g3B|GG3 B3A G4 GB3|A3B c3e d3e g3a|ge3 g3B A4 A2:|
